assets/images/industries/data-analysis.svg

<svg enable-background="new 0 0 512 512" viewBox="0 0 512 512" xmlns="http://www.w3.org/2000/svg"><circle cx="256" cy="267" fill="#535354" r="245"/><path d="m501 94.7v325.4c0 7.9-6.4 14.4-14.4 14.4h-167.4v68.9c-20.1 5.6-41.2 8.6-63.2 8.6s-43.1-3-63.2-8.6v-68.9h-167.4c-7.9 0-14.4-6.4-14.4-14.4v-325.4c0-7.9 6.4-14.4 14.4-14.4h461.3c7.9.1 14.3 6.5 14.3 14.4z" fill="#898989"/><path d="m235.9 453.6h83.3v50.1c-20.1 5.6-41.2 8.2-63.2 8.2-11.7 0-23.2-.9-34.5-2.5v-41.4c0-8 6.5-14.4 14.4-14.4zm250.7-373.2h-432.5c-7.9 0-14.4 6.4-14.4 14.4v325.4c0 7.9 6.4 14.4 14.4 14.4h432.6c7.9 0 14.4-6.4 14.4-14.4v-325.5c-.1-7.9-6.5-14.3-14.5-14.3z" fill="#a3a2a2"/><path d="m465.6 396.2h-419.2c-3.7 0-6.7-3-6.7-6.7v-225.9c0-3.7 3-6.7 6.7-6.7h419.2c3.7 0 6.7 3 6.7 6.7v225.9c0 3.7-3 6.7-6.7 6.7z" fill="#fff5f5"/><path d="m472.3 166.5h-432.6v-41.2c0-3.7 3-6.7 6.7-6.7h419.2c3.7 0 6.7 3 6.7 6.7z" fill="#89f7f4"/><path d="m106.7 142.6c0 5.3-4.3 9.6-9.6 9.6s-9.6-4.3-9.6-9.6 4.3-9.6 9.6-9.6 9.6 4.3 9.6 9.6zm-38.3-9.6c-5.3 0-9.6 4.3-9.6 9.6s4.3 9.6 9.6 9.6 9.6-4.3 9.6-9.6-4.3-9.6-9.6-9.6zm57.4 0c-5.3 0-9.6 4.3-9.6 9.6s4.3 9.6 9.6 9.6 9.6-4.3 9.6-9.6-4.3-9.6-9.6-9.6z" fill="#58e0d9"/><path d="m159.3 338.8h-90.5c-2.7 0-4.8-2.1-4.8-4.8v-9.6c0-2.7 2.1-4.8 4.8-4.8h90.5c2.7 0 4.8 2.1 4.8 4.8v9.6c0 2.7-2.1 4.8-4.8 4.8zm-23.5 23.9v-9.6c0-2.7-2.1-4.8-4.8-4.8h-62.2c-2.7 0-4.8 2.1-4.8 4.8v9.6c0 2.7 2.1 4.8 4.8 4.8h62.2c2.7 0 4.8-2.1 4.8-4.8zm305.9 0v-162.7c0-2.7-2.1-4.8-4.8-4.8h-239.3c-2.7 0-4.8 2.1-4.8 4.8v162.7c0 2.7 2.1 4.8 4.8 4.8h239.3c2.7 0 4.8-2.1 4.8-4.8z" fill="#fcdfac"/><path d="m275.3 314.9v52.6h-21.5v-52.6c0-2.7 2.1-4.8 4.8-4.8h12c2.6 0 4.7 2.1 4.7 4.8zm103-100.5h-12c-2.7 0-4.8 2.1-4.8 4.8v148.3h21.5v-148.4c.1-2.6-2.1-4.7-4.7-4.7zm35.8 57.4h-12c-2.7 0-4.8 2.1-4.8 4.8v90.9h21.5v-90.9c.1-2.7-2-4.8-4.7-4.8zm-71.8-28.7h-12c-2.7 0-4.8 2.1-4.8 4.8v119.6h21.5v-119.6c.1-2.7-2-4.8-4.7-4.8zm-35.8 38.3h-12c-2.7 0-4.8 2.1-4.8 4.8v81.3h21.5v-81.3c.1-2.7-2.1-4.8-4.7-4.8zm-74.2-76.6h-12c-2.7 0-4.8 2.1-4.8 4.8v157.9h21.5v-157.9c.1-2.7-2.1-4.8-4.7-4.8z" fill="#ffb81f"/><path d="m450.9 216.4-62.2 62.2c-1.8 1.8-4.2 2.8-6.8 2.8h-33l-45 72.1c-1.7 2.8-4.8 4.5-8.1 4.5-.2 0-.4 0-.7 0-3.5-.2-6.6-2.4-8-5.6l-42.1-92.7-47.7 47.7c-3.7 3.7-9.8 3.7-13.5 0s-3.7-9.8 0-13.5l57.4-57.4c2.2-2.2 5.4-3.3 8.5-2.7s5.7 2.6 7 5.5l40.5 89 38.4-61.4c1.7-2.8 4.8-4.5 8.1-4.5h34.3l59.4-59.4c3.7-3.7 9.8-3.7 13.5 0 3.7 3.5 3.7 9.6 0 13.4z" fill="#00a0a3"/><path d="m113 291.9c-26.1 0-47.3-21.2-47.3-47.3s21.2-47.3 47.3-47.3 47.3 21.2 47.3 47.3-21.2 47.3-47.3 47.3z" fill="#f9d39b"/><path d="m162.4 244.6v1.8c-.1 1.5-1.3 2.8-2.9 2.8h-48.6c-1.6 0-2.9-1.3-2.9-2.9v-48.1c0-1.5 1.2-2.8 2.8-2.9.8 0 1.5-.1 2.2-.1 27.3 0 49.4 22.1 49.4 49.4z" fill="#ff8602"/></svg>

<?xml version="1.0" encoding="utf-8"?>
<!-- Generator: Adobe Illustrator 24.2.3, SVG Export Plug-In . SVG Version: 6.00 Build 0)  -->
<svg version="1.1" id="Capa_1" xmlns="http://www.w3.org/2000/svg" xmlns:xlink="http://www.w3.org/1999/xlink" x="0px" y="0px"
	 viewBox="0 0 512 512" style="enable-background:new 0 0 512 512;" xml:space="preserve">
<style type="text/css">
	.st0{fill:#535354;}
	.st1{fill:#898989;}
	.st2{fill:#A3A2A2;}
	.st3{fill:#FFF5F5;}
	.st4{fill:#89F7F4;}
	.st5{fill:#58E0D9;}
	.st6{fill:#FCDFAC;}
	.st7{fill:#FFB81F;}
	.st8{fill:#00A0A3;}
	.st9{fill:#F9D39B;}
	.st10{fill:#FF8602;}
</style>
<circle class="st0" cx="256" cy="267" r="245"/>
<path class="st1" d="M501,94.7v325.4c0,7.9-6.4,14.4-14.4,14.4H319.2v68.9c-20.1,5.6-41.2,8.6-63.2,8.6s-43.1-3-63.2-8.6v-68.9H25.4
	c-7.9,0-14.4-6.4-14.4-14.4V94.7c0-7.9,6.4-14.4,14.4-14.4h461.3C494.6,80.4,501,86.8,501,94.7z"/>
<path class="st2" d="M235.9,453.6h83.3v50.1c-20.1,5.6-41.2,8.2-63.2,8.2c-11.7,0-23.2-0.9-34.5-2.5V468
	C221.5,460,228,453.6,235.9,453.6z M486.6,80.4H54.1c-7.9,0-14.4,6.4-14.4,14.4v325.4c0,7.9,6.4,14.4,14.4,14.4h432.6
	c7.9,0,14.4-6.4,14.4-14.4V94.7C501,86.8,494.6,80.4,486.6,80.4z"/>
<path class="st3" d="M465.6,396.2H46.4c-3.7,0-6.7-3-6.7-6.7V163.6c0-3.7,3-6.7,6.7-6.7h419.2c3.7,0,6.7,3,6.7,6.7v225.9
	C472.3,393.2,469.3,396.2,465.6,396.2z"/>
<path class="st4" d="M472.3,166.5H39.7v-41.2c0-3.7,3-6.7,6.7-6.7h419.2c3.7,0,6.7,3,6.7,6.7V166.5z"/>
<path class="st5" d="M106.7,142.6c0,5.3-4.3,9.6-9.6,9.6s-9.6-4.3-9.6-9.6s4.3-9.6,9.6-9.6S106.7,137.3,106.7,142.6z M68.4,133
	c-5.3,0-9.6,4.3-9.6,9.6s4.3,9.6,9.6,9.6s9.6-4.3,9.6-9.6S73.7,133,68.4,133z M125.8,133c-5.3,0-9.6,4.3-9.6,9.6s4.3,9.6,9.6,9.6
	s9.6-4.3,9.6-9.6S131.1,133,125.8,133z"/>
<path class="st6" d="M159.3,338.8H68.8c-2.7,0-4.8-2.1-4.8-4.8v-9.6c0-2.7,2.1-4.8,4.8-4.8h90.5c2.7,0,4.8,2.1,4.8,4.8v9.6
	C164.1,336.7,162,338.8,159.3,338.8z M135.8,362.7v-9.6c0-2.7-2.1-4.8-4.8-4.8H68.8c-2.7,0-4.8,2.1-4.8,4.8v9.6
	c0,2.7,2.1,4.8,4.8,4.8H131C133.7,367.5,135.8,365.4,135.8,362.7z M441.7,362.7V200c0-2.7-2.1-4.8-4.8-4.8H197.6
	c-2.7,0-4.8,2.1-4.8,4.8v162.7c0,2.7,2.1,4.8,4.8,4.8h239.3C439.6,367.5,441.7,365.4,441.7,362.7z"/>
<path class="st7" d="M275.3,314.9v52.6h-21.5v-52.6c0-2.7,2.1-4.8,4.8-4.8h12C273.2,310.1,275.3,312.2,275.3,314.9z M378.3,214.4
	h-12c-2.7,0-4.8,2.1-4.8,4.8v148.3h21.5V219.1C383.1,216.5,380.9,214.4,378.3,214.4z M414.1,271.8h-12c-2.7,0-4.8,2.1-4.8,4.8v90.9
	h21.5v-90.9C418.9,273.9,416.8,271.8,414.1,271.8z M342.3,243.1h-12c-2.7,0-4.8,2.1-4.8,4.8v119.6h21.5V247.9
	C347.1,245.2,345,243.1,342.3,243.1z M306.5,281.4h-12c-2.7,0-4.8,2.1-4.8,4.8v81.3h21.5v-81.3C311.3,283.5,309.1,281.4,306.5,281.4
	z M232.3,204.8h-12c-2.7,0-4.8,2.1-4.8,4.8v157.9h21.5V209.6C237.1,206.9,234.9,204.8,232.3,204.8z"/>
<path class="st8" d="M450.9,216.4l-62.2,62.2c-1.8,1.8-4.2,2.8-6.8,2.8h-33l-45,72.1c-1.7,2.8-4.8,4.5-8.1,4.5c-0.2,0-0.4,0-0.7,0
	c-3.5-0.2-6.6-2.4-8-5.6l-42.1-92.7l-47.7,47.7c-3.7,3.7-9.8,3.7-13.5,0c-3.7-3.7-3.7-9.8,0-13.5l57.4-57.4c2.2-2.2,5.4-3.3,8.5-2.7
	c3.1,0.6,5.7,2.6,7,5.5l40.5,89l38.4-61.4c1.7-2.8,4.8-4.5,8.1-4.5H378l59.4-59.4c3.7-3.7,9.8-3.7,13.5,0
	C454.6,206.5,454.6,212.6,450.9,216.4z"/>
<path class="st9" d="M113,291.9c-26.1,0-47.3-21.2-47.3-47.3s21.2-47.3,47.3-47.3s47.3,21.2,47.3,47.3S139.1,291.9,113,291.9z"/>
<path class="st10" d="M162.4,244.6c0,0.6,0,1.2,0,1.8c-0.1,1.5-1.3,2.8-2.9,2.8h-48.6c-1.6,0-2.9-1.3-2.9-2.9v-48.1
	c0-1.5,1.2-2.8,2.8-2.9c0.8,0,1.5-0.1,2.2-0.1C140.3,195.2,162.4,217.3,162.4,244.6z"/>
</svg>
